X:480
T:
R:vals
S:Efter »Florsen» i Burs.
O:Gotland, Burs
M:3/4
L:1/8
K:G
B2|B2 A2 B2|c2 B2 c2|d2 b2 g2|d6|d2 =f2 e2|c6|c2 e2 d2|B6|B2 A2 B2|c2 B2 c2|d2 b2 g2|
d6|d2 =f2 e2|c6|d2 =f2 e2|c2 e2 d2|f2 e2 f2|g4::Bc|e2 d2 Bc|e2 d2 gf|f2 e2 e2| e3 dcB|
B2A2 A2|a3 fga|bafage|d4 Bc|e2 d2 Bc|e2 d2 gf|f2e2 e2|e3 dcB|B2 A2 A2|a3 fga|b2 g2 g2|g4:|

